X: 19602
T: Jane's Boots
R: barndance
M: 4/4
K: Fdorian
K:Fmin
|:A2cA GccG|FccF EccE|FGAB BcBA|AGFc G2FG|
A2cA GccG|FccF EccE|FGAc G3E|ECF2 FEFG:|
|:A2BA EGGB|cBBA EGCB,|C2FG GAAG|FABc B2AG|
A2BA EGGB|cBBA EGCB,|C2FG GAAG|FABG GFEG:|

